X: 727
T: Ma fandongpai
L: 1/8
M: 2/4
K: G
B B G A [I:setbarnb 1]| 
d2c B | 
A B/ A/ E G | 
F ED2 | 
A A E G | 
A G F E | 
D D B, A,/ B,/ | 
D4 |]

@@@ Tune index: 9601
